X: 10903
T: Drowsy Maggie
R: reel
M: 4/4
K: Gmajor
E2(BE dEBE)|E2(BE AFDF)|E2(BE dEBE)|T(BAB)^c dAFD|
E2(BE dEBE)|E2(BE AFDF)|E2(BE dEBE)|T(BAB)^c dAFD||
d2(fd) c2(ec)|defg afge|d2(fd) c2(ec)|T(BAB)c dAFA|
d2(fd) c2(ec)|defg afge|afge fdec|T(BAB)c dAFD||

